!!!OTL: NU UP JI RUTERS
!!!ARE: Europa, Mitteleuropa, Deutschland, Westfalen
!!!SCT: E0408A
!!!YEM: Copyright 1995, estate of Helmut Schaffrath.
**kern
*ICvox
*Ivox
*M6/8
*k[b-e-]
*g:
{8g
=1
4g
8dd
4dd
8cc
=2
4dd
8b-
4a}
{8a
=3
4cc
8cc
8cc
8b-
8a
=4
8b-
8b-
8a
4g}
{8g
=5
8g
8b-
8b-
8b-
8a
8g
=6
4.a
4d
8r}
=7
{4b-
8b-
4b-
8b-
=8
8.a
16cc
8cc
4cc}
{8a
=9
8b-
8dd
8dd
8dd
8cc
8b-
=10
4.a
4g}
==
!!!AGN: Liebes - Lied
!!!ONB: ESAC (Essen Associative Code) Database: ERK1
!!!AMT: compound duple
!!!AIN: vox
!!!EED: Helmut Schaffrath
!!!EEV: 1.0
*-
